X:1
T:Take On Me
C:A-Ha
Z:All Rights Reserved
L:1/8
M:4/4
K:A
V:1 treble 
%%MIDI program 40
V:1
|: FFDB,- B, B,2 E- | E E2 E GGAB | AAA E2 E2 F- | F2 FE EFE z ::"^A""Bm" D4 D C2 B, | %5
w: ||||Talk ing a- way|
w: ||||Need less to say|
w: ||||Things that you say|
"E" z4 z2 z C |"A" C2 C2 A,2 z2 |"D" E2 E"A/C#" F2 E2 z |"Bm" D2 DD CB, z2 |"E" z4 z2 z C | %10
w: I|don't know what|I'm to say I'll|say it an y way|To|
w: I'm|odds and ends|but that's me _|stum- bl- ing a- way-|Slow-|
w: is|it life or|just a play _|my wor- ries a- way|You're|
"A" C2 C B,2 A,2 z |"D" D2 D"A/C#" E2 D2 z |"Bm" D4 D C2 B, |"E" z8 |"F#m" z4 A,A,A,A, | %15
w: day's an o ther|day to find you|Shy ing a way||I'll be com- ing|
w: ly learn- ing that|life is O K|Say af- ter me||It's no better to|
w: all the things I've|got to rem- member|You're shying a- way||I'll be com- ing|
"D" A,A,A,G, F,2 z2 |"^B""A" A,8 |"E/G#" E8 |"F#m" F8 |"D" (3E4 F4 E4 |"A" C8 |"E/G#" G8 | %22
w: for you love O- K|Take|on|me|(take on me)|Take|me|
w: be safe than Sor- ry|||||||
w: for you an- y- way|||||||
"F#m" A8 |"D" (3E4 F4 E4 |"A" A8 |"E/G#" e8 |"F#m" f8- |"D" f2 c'c' b2 a2 |"A" e'8- |"E/G#" e'8- | %30
w: on|(take on me)|I'll|be|gone|* in a day or|two|_|
w: ||||||||
w: ||||||||
"F#m" e'8- |"D" e'6 B,B,"^Go To C after 2nd Chorus" :|"^C""C#m" z8 | z8 |"G" z8 | z8 |"C#m" z8 | %37
w: |||||||
w: |* * 2.So||||||
w: |* 3.Oh the||||||
 z8 |"G" z8 | z8 |"Bm" z8 | z8 |"E" z8 | z8"^Do 3rd verse and repeat chorus" | %44
w: |||||||
w: |||||||
w: |||||||

